X:12
T:Planxty George Brabazon
R:carolan
C:Turlough O'Carolan (1670-1738)
Z:id:hn-carolan-12
M:2/4
L:1/16
K:G
ge | d2G2 cBAG | d2G2 cBAG | e2A2 ABcd | edcB A2Bc |
d2cB g2fe | edcB cBAG | BAGE DEGA | B2G2 G2 :|
|: ga | b2gb a2fa | g2eg edcB | e2A2 ABcd | edcB A2ga |
b2gb a2fa | g2eg edcB | cBAG DEGA | B2G2 G2 :|
<end>
<start>
